src/activities/target/target.svg

<?xml version="1.0" encoding="UTF-8" standalone="no"?>
<!-- Created with Inkscape (http://www.inkscape.org/) -->

<svg
   xmlns:dc="http://purl.org/dc/elements/1.1/"
   xmlns:cc="http://creativecommons.org/ns#"
   xmlns:rdf="http://www.w3.org/1999/02/22-rdf-syntax-ns#"
   xmlns:svg="http://www.w3.org/2000/svg"
   xmlns="http://www.w3.org/2000/svg"
   xmlns:sodipodi="http://sodipodi.sourceforge.net/DTD/sodipodi-0.dtd"
   xmlns:inkscape="http://www.inkscape.org/namespaces/inkscape"
   width="100"
   height="100"
   id="svg2885"
   sodipodi:version="0.32"
   inkscape:version="0.91 r13725"
   version="1.0"
   sodipodi:docname="target.svg">
  <defs
     id="defs2887" />
  <sodipodi:namedview
     id="base"
     pagecolor="#ffffff"
     bordercolor="#666666"
     borderopacity="1.0"
     inkscape:pageopacity="0.0"
     inkscape:pageshadow="2"
     inkscape:zoom="4"
     inkscape:cx="16.910925"
     inkscape:cy="50.627756"
     inkscape:document-units="px"
     inkscape:current-layer="layer1"
     height="100px"
     width="100px"
     inkscape:window-width="1880"
     inkscape:window-height="1060"
     inkscape:window-x="-2"
     inkscape:window-y="-3"
     showgrid="false"
     inkscape:window-maximized="1" />
  <metadata
     id="metadata2890">
    <rdf:RDF>
      <cc:Work
         rdf:about="">
        <dc:format>image/svg+xml</dc:format>
        <dc:type
           rdf:resource="http://purl.org/dc/dcmitype/StillImage" />
        <dc:title></dc:title>
        <dc:date>2015</dc:date>
        <dc:creator>
          <cc:Agent>
            <dc:title>Timothée Giet</dc:title>
          </cc:Agent>
        </dc:creator>
        <cc:license
           rdf:resource="http://creativecommons.org/licenses/by-sa/4.0/" />
      </cc:Work>
      <cc:License
         rdf:about="http://creativecommons.org/licenses/by-sa/4.0/">
        <cc:permits
           rdf:resource="http://creativecommons.org/ns#Reproduction" />
        <cc:permits
           rdf:resource="http://creativecommons.org/ns#Distribution" />
        <cc:requires
           rdf:resource="http://creativecommons.org/ns#Notice" />
        <cc:requires
           rdf:resource="http://creativecommons.org/ns#Attribution" />
        <cc:permits
           rdf:resource="http://creativecommons.org/ns#DerivativeWorks" />
        <cc:requires
           rdf:resource="http://creativecommons.org/ns#ShareAlike" />
      </cc:License>
    </rdf:RDF>
  </metadata>
  <g
     inkscape:label="Calque 1"
     inkscape:groupmode="layer"
     id="layer1">
    <path
       style="color:#000000;clip-rule:nonzero;display:inline;overflow:visible;visibility:visible;opacity:1;isolation:auto;mix-blend-mode:normal;color-interpolation:sRGB;color-interpolation-filters:linearRGB;solid-color:#000000;solid-opacity:1;fill:#b7821f;fill-opacity:1;fill-rule:nonzero;stroke:none;stroke-width:1.18700004;stroke-linecap:butt;stroke-linejoin:miter;stroke-miterlimit:4;stroke-dasharray:none;stroke-dashoffset:0;stroke-opacity:1;marker:none;color-rendering:auto;image-rendering:auto;shape-rendering:auto;text-rendering:auto;enable-background:accumulate"
       id="path4152-3"
       sodipodi:type="arc"
       sodipodi:cx="50"
       sodipodi:cy="60.544125"
       sodipodi:rx="33.894333"
       sodipodi:ry="33.894333"
       sodipodi:start="0.14344896"
       sodipodi:end="0.14048923"
       sodipodi:open="true"
       d="M 83.546198,65.389573 A 33.894333,33.894333 0 0 1 45.179374,94.093899 33.894333,33.894333 0 0 1 16.446668,55.748325 33.894333,33.894333 0 0 1 54.770971,26.987253 33.894333,33.894333 0 0 1 83.560393,65.290265" />
    <path
       style="color:#000000;clip-rule:nonzero;display:inline;overflow:visible;visibility:visible;opacity:1;isolation:auto;mix-blend-mode:normal;color-interpolation:sRGB;color-interpolation-filters:linearRGB;solid-color:#000000;solid-opacity:1;fill:#eec372;fill-opacity:1;fill-rule:nonzero;stroke:none;stroke-width:1.18700004;stroke-linecap:butt;stroke-linejoin:miter;stroke-miterlimit:4;stroke-dasharray:none;stroke-dashoffset:0;stroke-opacity:1;marker:none;color-rendering:auto;image-rendering:auto;shape-rendering:auto;text-rendering:auto;enable-background:accumulate"
       id="path4152"
       sodipodi:type="arc"
       sodipodi:cx="50"
       sodipodi:cy="59.691433"
       sodipodi:rx="30.057238"
       sodipodi:ry="30.057238"
       sodipodi:start="0.14344896"
       sodipodi:end="0.14048923"
       sodipodi:open="true"
       d="M 79.748515,63.98834 A 30.057238,30.057238 0 0 1 45.725106,89.443119 30.057238,30.057238 0 0 1 20.245159,55.438554 30.057238,30.057238 0 0 1 54.230861,29.933453 30.057238,30.057238 0 0 1 79.761102,63.900274" />
    <path
       style="color:#000000;clip-rule:nonzero;display:inline;overflow:visible;visibility:visible;opacity:1;isolation:auto;mix-blend-mode:normal;color-interpolation:sRGB;color-interpolation-filters:linearRGB;solid-color:#000000;solid-opacity:1;fill:#f09d31;fill-opacity:1;fill-rule:nonzero;stroke:none;stroke-width:1.18700004;stroke-linecap:butt;stroke-linejoin:miter;stroke-miterlimit:4;stroke-dasharray:none;stroke-dashoffset:0;stroke-opacity:1;marker:none;color-rendering:auto;image-rendering:auto;shape-rendering:auto;text-rendering:auto;enable-background:accumulate"
       id="path4152-6"
       sodipodi:type="arc"
       sodipodi:cx="50"
       sodipodi:cy="59.691433"
       sodipodi:rx="25.154284"
       sodipodi:ry="25.154284"
       sodipodi:start="0.14344896"
       sodipodi:end="0.14048923"
       sodipodi:open="true"
       d="M 74.89592,63.287426 A 25.154284,25.154284 0 0 1 46.422429,84.590007 25.154284,25.154284 0 0 1 25.098786,56.132286 25.154284,25.154284 0 0 1 53.540721,34.787592 25.154284,25.154284 0 0 1 74.906454,63.213725" />
    <path
       style="color:#000000;clip-rule:nonzero;display:inline;overflow:visible;visibility:visible;opacity:1;isolation:auto;mix-blend-mode:normal;color-interpolation:sRGB;color-interpolation-filters:linearRGB;solid-color:#000000;solid-opacity:1;fill:#eec372;fill-opacity:1;fill-rule:nonzero;stroke:none;stroke-width:1.18700004;stroke-linecap:butt;stroke-linejoin:miter;stroke-miterlimit:4;stroke-dasharray:none;stroke-dashoffset:0;stroke-opacity:1;marker:none;color-rendering:auto;image-rendering:auto;shape-rendering:auto;text-rendering:auto;enable-background:accumulate"
       id="path4152-7"
       sodipodi:type="arc"
       sodipodi:cx="50"
       sodipodi:cy="59.691433"
       sodipodi:rx="22.557255"
       sodipodi:ry="22.557255"
       sodipodi:start="0.14344896"
       sodipodi:end="0.14048923"
       sodipodi:open="true"
       d="M 72.325565,62.916162 A 22.557255,22.557255 0 0 1 46.791792,82.019378 22.557255,22.557255 0 0 1 27.669687,56.499747 22.557255,22.557255 0 0 1 53.175162,37.358764 22.557255,22.557255 0 0 1 72.335012,62.85007" />
    <path
       style="color:#000000;clip-rule:nonzero;display:inline;overflow:visible;visibility:visible;opacity:1;isolation:auto;mix-blend-mode:normal;color-interpolation:sRGB;color-interpolation-filters:linearRGB;solid-color:#000000;solid-opacity:1;fill:#f07d31;fill-opacity:1;fill-rule:nonzero;stroke:none;stroke-width:1.18700004;stroke-linecap:butt;stroke-linejoin:miter;stroke-miterlimit:4;stroke-dasharray:none;stroke-dashoffset:0;stroke-opacity:1;marker:none;color-rendering:auto;image-rendering:auto;shape-rendering:auto;text-rendering:auto;enable-background:accumulate"
       id="path4152-6-5"
       sodipodi:type="arc"
       sodipodi:cx="50"
       sodipodi:cy="59.691433"
       sodipodi:rx="17.067503"
       sodipodi:ry="17.067503"
       sodipodi:start="0.14344896"
       sodipodi:end="0.14048923"
       sodipodi:open="true"
       d="M 66.8922,62.13136 A 17.067503,17.067503 0 0 1 47.572572,76.585433 17.067503,17.067503 0 0 1 33.104208,57.276506 17.067503,17.067503 0 0 1 52.402424,42.793859 17.067503,17.067503 0 0 1 66.899347,62.081353" />
    <path
       style="color:#000000;clip-rule:nonzero;display:inline;overflow:visible;visibility:visible;opacity:1;isolation:auto;mix-blend-mode:normal;color-interpolation:sRGB;color-interpolation-filters:linearRGB;solid-color:#000000;solid-opacity:1;fill:#eec372;fill-opacity:1;fill-rule:nonzero;stroke:none;stroke-width:1.18700004;stroke-linecap:butt;stroke-linejoin:miter;stroke-miterlimit:4;stroke-dasharray:none;stroke-dashoffset:0;stroke-opacity:1;marker:none;color-rendering:auto;image-rendering:auto;shape-rendering:auto;text-rendering:auto;enable-background:accumulate"
       id="path4152-7-3"
       sodipodi:type="arc"
       sodipodi:cx="50"
       sodipodi:cy="59.691433"
       sodipodi:rx="13.817207"
       sodipodi:ry="13.817207"
       sodipodi:start="0.14344896"
       sodipodi:end="0.14048923"
       sodipodi:open="true"
       d="M 63.675288,61.666706 A 13.817207,13.817207 0 0 1 48.034846,73.368179 13.817207,13.817207 0 0 1 36.321803,57.736399 13.817207,13.817207 0 0 1 51.944912,46.011794 13.817207,13.817207 0 0 1 63.681075,61.626223" />
    <path
       style="color:#000000;clip-rule:nonzero;display:inline;overflow:visible;visibility:visible;opacity:1;isolation:auto;mix-blend-mode:normal;color-interpolation:sRGB;color-interpolation-filters:linearRGB;solid-color:#000000;solid-opacity:1;fill:#f05c31;fill-opacity:1;fill-rule:nonzero;stroke:none;stroke-width:1.18700004;stroke-linecap:butt;stroke-linejoin:miter;stroke-miterlimit:4;stroke-dasharray:none;stroke-dashoffset:0;stroke-opacity:1;marker:none;color-rendering:auto;image-rendering:auto;shape-rendering:auto;text-rendering:auto;enable-background:accumulate"
       id="path4152-6-5-5"
       sodipodi:type="arc"
       sodipodi:cx="50"
       sodipodi:cy="59.691433"
       sodipodi:rx="6.4089084"
       sodipodi:ry="6.4089084"
       sodipodi:start="0.14344896"
       sodipodi:end="0.14048923"
       sodipodi:open="true"
       d="m 56.343081,60.607634 a 6.4089084,6.4089084 0 0 1 -7.254589,5.427557 6.4089084,6.4089084 0 0 1 -5.432922,-7.250572 6.4089084,6.4089084 0 0 1 7.246549,-5.438286 6.4089084,6.4089084 0 0 1 5.443646,7.242524" />
  </g>
</svg>

<!--Created with Inkscape (http://www.inkscape.org/)--><svg xmlns:dc="http://purl.org/dc/elements/1.1/" xmlns:cc="http://creativecommons.org/ns#" xmlns:rdf="http://www.w3.org/1999/02/22-rdf-syntax-ns#" xmlns="http://www.w3.org/2000/svg" xmlns:sodipodi="http://sodipodi.sourceforge.net/DTD/sodipodi-0.dtd" xmlns:inkscape="http://www.inkscape.org/namespaces/inkscape" width="100" height="100" sodipodi:version="0.32" inkscape:version="0.91 r13725" version="1.0" sodipodi:docname="target.svg"><sodipodi:namedview pagecolor="#ffffff" bordercolor="#666666" borderopacity="1.0" inkscape:pageopacity="0.0" inkscape:pageshadow="2" inkscape:zoom="4" inkscape:cx="16.910925" inkscape:cy="50.627756" inkscape:document-units="px" inkscape:current-layer="layer1" height="100px" width="100px" inkscape:window-width="1880" inkscape:window-height="1060" inkscape:window-x="-2" inkscape:window-y="-3" showgrid="false" inkscape:window-maximized="1"/><metadata><rdf:RDF><cc:Work><dc:format>image/svg+xml</dc:format><dc:type rdf:resource="http://purl.org/dc/dcmitype/StillImage"/><dc:title/><dc:date>2015</dc:date><dc:creator><cc:Agent><dc:title>Timothée Giet</dc:title></cc:Agent></dc:creator><cc:license rdf:resource="http://creativecommons.org/licenses/by-sa/4.0/"/></cc:Work><cc:License rdf:about="http://creativecommons.org/licenses/by-sa/4.0/"><cc:permits rdf:resource="http://creativecommons.org/ns#Reproduction"/><cc:permits rdf:resource="http://creativecommons.org/ns#Distribution"/><cc:requires rdf:resource="http://creativecommons.org/ns#Notice"/><cc:requires rdf:resource="http://creativecommons.org/ns#Attribution"/><cc:permits rdf:resource="http://creativecommons.org/ns#DerivativeWorks"/><cc:requires rdf:resource="http://creativecommons.org/ns#ShareAlike"/></cc:License></rdf:RDF></metadata><g inkscape:label="Calque 1" inkscape:groupmode="layer"><path style="color:#000;clip-rule:nonzero;display:inline;overflow:visible;visibility:visible;opacity:1;isolation:auto;mix-blend-mode:normal;color-interpolation:sRGB;color-interpolation-filters:linearRGB;solid-color:#000;solid-opacity:1;fill:#b7821f;fill-opacity:1;fill-rule:nonzero;stroke:none;stroke-width:1.18700004;stroke-linecap:butt;stroke-linejoin:miter;stroke-miterlimit:4;stroke-dasharray:none;stroke-dashoffset:0;stroke-opacity:1;marker:none;color-rendering:auto;image-rendering:auto;shape-rendering:auto;text-rendering:auto;enable-background:accumulate" sodipodi:type="arc" sodipodi:cx="50" sodipodi:cy="60.544125" sodipodi:rx="33.894333" sodipodi:ry="33.894333" sodipodi:start="0.14344896" sodipodi:end="0.14048923" sodipodi:open="true" d="M83.546 65.39A33.894 33.894 0 0 1 45.18 94.094a33.894 33.894 0 0 1-28.732-38.346 33.894 33.894 0 0 1 38.324-28.76 33.894 33.894 0 0 1 28.79 38.302"/><path style="color:#000;clip-rule:nonzero;display:inline;overflow:visible;visibility:visible;opacity:1;isolation:auto;mix-blend-mode:normal;color-interpolation:sRGB;color-interpolation-filters:linearRGB;solid-color:#000;solid-opacity:1;fill:#eec372;fill-opacity:1;fill-rule:nonzero;stroke:none;stroke-width:1.18700004;stroke-linecap:butt;stroke-linejoin:miter;stroke-miterlimit:4;stroke-dasharray:none;stroke-dashoffset:0;stroke-opacity:1;marker:none;color-rendering:auto;image-rendering:auto;shape-rendering:auto;text-rendering:auto;enable-background:accumulate" sodipodi:type="arc" sodipodi:cx="50" sodipodi:cy="59.691433" sodipodi:rx="30.057238" sodipodi:ry="30.057238" sodipodi:start="0.14344896" sodipodi:end="0.14048923" sodipodi:open="true" d="M79.749 63.988a30.057 30.057 0 0 1-34.024 25.455 30.057 30.057 0 0 1-25.48-34.004 30.057 30.057 0 0 1 33.986-25.506A30.057 30.057 0 0 1 79.76 63.9"/><path style="color:#000;clip-rule:nonzero;display:inline;overflow:visible;visibility:visible;opacity:1;isolation:auto;mix-blend-mode:normal;color-interpolation:sRGB;color-interpolation-filters:linearRGB;solid-color:#000;solid-opacity:1;fill:#f09d31;fill-opacity:1;fill-rule:nonzero;stroke:none;stroke-width:1.18700004;stroke-linecap:butt;stroke-linejoin:miter;stroke-miterlimit:4;stroke-dasharray:none;stroke-dashoffset:0;stroke-opacity:1;marker:none;color-rendering:auto;image-rendering:auto;shape-rendering:auto;text-rendering:auto;enable-background:accumulate" sodipodi:type="arc" sodipodi:cx="50" sodipodi:cy="59.691433" sodipodi:rx="25.154284" sodipodi:ry="25.154284" sodipodi:start="0.14344896" sodipodi:end="0.14048923" sodipodi:open="true" d="M74.896 63.287A25.154 25.154 0 0 1 46.422 84.59 25.154 25.154 0 0 1 25.1 56.132 25.154 25.154 0 0 1 53.54 34.788a25.154 25.154 0 0 1 21.365 28.426"/><path style="color:#000;clip-rule:nonzero;display:inline;overflow:visible;visibility:visible;opacity:1;isolation:auto;mix-blend-mode:normal;color-interpolation:sRGB;color-interpolation-filters:linearRGB;solid-color:#000;solid-opacity:1;fill:#eec372;fill-opacity:1;fill-rule:nonzero;stroke:none;stroke-width:1.18700004;stroke-linecap:butt;stroke-linejoin:miter;stroke-miterlimit:4;stroke-dasharray:none;stroke-dashoffset:0;stroke-opacity:1;marker:none;color-rendering:auto;image-rendering:auto;shape-rendering:auto;text-rendering:auto;enable-background:accumulate" sodipodi:type="arc" sodipodi:cx="50" sodipodi:cy="59.691433" sodipodi:rx="22.557255" sodipodi:ry="22.557255" sodipodi:start="0.14344896" sodipodi:end="0.14048923" sodipodi:open="true" d="M72.326 62.916A22.557 22.557 0 0 1 46.792 82.02 22.557 22.557 0 0 1 27.67 56.5a22.557 22.557 0 0 1 25.505-19.14 22.557 22.557 0 0 1 19.16 25.491"/><path style="color:#000;clip-rule:nonzero;display:inline;overflow:visible;visibility:visible;opacity:1;isolation:auto;mix-blend-mode:normal;color-interpolation:sRGB;color-interpolation-filters:linearRGB;solid-color:#000;solid-opacity:1;fill:#f07d31;fill-opacity:1;fill-rule:nonzero;stroke:none;stroke-width:1.18700004;stroke-linecap:butt;stroke-linejoin:miter;stroke-miterlimit:4;stroke-dasharray:none;stroke-dashoffset:0;stroke-opacity:1;marker:none;color-rendering:auto;image-rendering:auto;shape-rendering:auto;text-rendering:auto;enable-background:accumulate" sodipodi:type="arc" sodipodi:cx="50" sodipodi:cy="59.691433" sodipodi:rx="17.067503" sodipodi:ry="17.067503" sodipodi:start="0.14344896" sodipodi:end="0.14048923" sodipodi:open="true" d="M66.892 62.131a17.068 17.068 0 0 1-19.32 14.454 17.068 17.068 0 0 1-14.468-19.308 17.068 17.068 0 0 1 19.298-14.483A17.068 17.068 0 0 1 66.9 62.08"/><path style="color:#000;clip-rule:nonzero;display:inline;overflow:visible;visibility:visible;opacity:1;isolation:auto;mix-blend-mode:normal;color-interpolation:sRGB;color-interpolation-filters:linearRGB;solid-color:#000;solid-opacity:1;fill:#eec372;fill-opacity:1;fill-rule:nonzero;stroke:none;stroke-width:1.18700004;stroke-linecap:butt;stroke-linejoin:miter;stroke-miterlimit:4;stroke-dasharray:none;stroke-dashoffset:0;stroke-opacity:1;marker:none;color-rendering:auto;image-rendering:auto;shape-rendering:auto;text-rendering:auto;enable-background:accumulate" sodipodi:type="arc" sodipodi:cx="50" sodipodi:cy="59.691433" sodipodi:rx="13.817207" sodipodi:ry="13.817207" sodipodi:start="0.14344896" sodipodi:end="0.14048923" sodipodi:open="true" d="M63.675 61.667a13.817 13.817 0 0 1-15.64 11.701 13.817 13.817 0 0 1-11.713-15.632 13.817 13.817 0 0 1 15.623-11.724A13.817 13.817 0 0 1 63.68 61.626"/><path style="color:#000;clip-rule:nonzero;display:inline;overflow:visible;visibility:visible;opacity:1;isolation:auto;mix-blend-mode:normal;color-interpolation:sRGB;color-interpolation-filters:linearRGB;solid-color:#000;solid-opacity:1;fill:#f05c31;fill-opacity:1;fill-rule:nonzero;stroke:none;stroke-width:1.18700004;stroke-linecap:butt;stroke-linejoin:miter;stroke-miterlimit:4;stroke-dasharray:none;stroke-dashoffset:0;stroke-opacity:1;marker:none;color-rendering:auto;image-rendering:auto;shape-rendering:auto;text-rendering:auto;enable-background:accumulate" sodipodi:type="arc" sodipodi:cx="50" sodipodi:cy="59.691433" sodipodi:rx="6.4089084" sodipodi:ry="6.4089084" sodipodi:start="0.14344896" sodipodi:end="0.14048923" sodipodi:open="true" d="M56.343 60.608a6.409 6.409 0 0 1-7.255 5.427 6.409 6.409 0 0 1-5.432-7.25 6.409 6.409 0 0 1 7.246-5.439 6.409 6.409 0 0 1 5.444 7.243"/></g></svg>
